X:1
T:Title
%%score 1 { ( 2 5 ) | ( 3 4 ) }
L:1/8
Q:1/4=106
M:4/4
K:C
V:1 treble nm="Akkordion"
V:2 treble nm="Grand Piano"
V:5 treble 
V:3 bass 
V:4 bass 
V:1
 E3 F G2 E2 | A3 A A2 G2 | c3 c B2 A2 | G3 F F2 E2 | E3 F G2 E2 | A3 A A2 G2 | c4 B4 | c6 z2 | %8
w: Mrs.~Heathcote * * *||||||||
 B3 c d2 B2 | G3 F F2 E2 | A3 ^G A2 e2 | d3 c c2 B2 | c3 B c2 G2 | B2 A2 G2 A2 | E4 F3 D | C6 z2 |] %16
w: ||||||||
V:2
 EG,EF GCEC | AC .A2 .[FA]2 .G2 | .[Ec]2 cC BC .A2 | z4 .[DF]2 EG, | EG,EF GCEC | %5
 AC .A2 .[FA]2 GC | c4 B4 | [Ec]6 z2 | .[GB]2 Bc dG .B2 | z4 .[DF]2 EG, | %10
 ACA^G[K:bass] z A z[K:treble] e | z ^FAc[K:bass] G,,2 z2 | .[Ec]2 cB cC .G2 | .[GB]2 AC GC .A2 | %14
 z4 .[DF]2 D[K:bass]F, | C6 z2 |] %16
V:3
 .C2 CD .E2 z2 | .[F,F]2 FC[K:bass] z CEC | z[K:treble] C .E2 .G2 FC | z B,GF[K:bass] z G, .C2 | %4
 .C2 C[K:treble]D .E2 z2 | .[F,F]2 FC[K:bass] z C .E2 | C,2 D,E, D,2 z F | C,6 z2 | %8
 z DGE .[G,F]2 DG | z B,GF[K:bass] z G,[K:treble] .C2 | .[F,F]2 FF z F z [GA] | z4 z DGB | %12
 z CED .E2 EC | z[K:treble] C .F2 .E2 FC | z G,CE z G, .B,2 | [C,E,]6 z2 |] %16
V:4
 C,4 z4 | z4[K:bass] C,2 z2 | C,4[K:treble] z4 | G,2 z2[K:bass] C,2 z2 | C,4[K:treble] z4 | %5
 z4[K:bass] C,2 z2 | z4 z2 G,,2 | x8 | G,2 z2 z4 | G,2 z2[K:bass] C,2[K:treble] z2 | x8 | x8 | %12
 C,4 z4 | C,4[K:treble] z4 | C,2 z2 G,,2 z2 | x8 |] %16
V:5
 x8 | x8 | x8 | x8 | x8 | x8 | z EFG z D .E2 | x8 | x8 | x8 | z4[K:bass] D,2 ^C,2[K:treble] | %11
 D,2 z2[K:bass] z4 | x8 | x8 | x7[K:bass] x | x8 |] %16

